icons/1_Primary/Global Entry.svg

<svg width="1024" height="1024" fill="none" xmlns="http://www.w3.org/2000/svg"><g clip-path="url(#a)"><path d="M512 1024c282.77 0 512-229.23 512-512S794.77 0 512 0 0 229.23 0 512s229.23 512 512 512Z" fill="#728DBE"/><path d="M491.64 741.26C369.52 733 291.12 614.18 301.79 496.33L270 491.72c-.4 3.27-.8 6.78-1.18 10.49-13.21 127 76.28 244.5 206.71 263.25 123.06 17.7 239.18-58.65 262.43-174-27.71 100-127.25 157.92-246.28 149.84M619.56 267C712.65 312.92 758 422.67 721.84 527.78 682 643.55 558.38 710.16 444.58 677.67l-10.48 30.4c3.17 1 6.52 2 10.1 3 122.32 36.74 256.22-34.46 299-159.13 40.41-117.53-14.66-240.59-123.69-285M487 671.47c-81.2-10-143.51-79.75-144-167.35-.52-96.51 74.13-178.21 167.2-183.64l-.12-25.34c-2.6 0-5.37.18-8.31.34-100.55 4.51-181.58 92.37-181 196.22.56 97.93 73.55 175.11 166.22 179.77M567.81 286c89.32 36.56 136.11 136.85 105.39 224.88l23.44 9.6c1-2.43 1.91-5 2.87-7.77 34.42-94.57-15.56-203.13-111.66-242.45-90.66-37.1-190 .64-229.82 84.41 40.32-71.13 128.73-101.84 209.78-68.67ZM377.58 445.29c-.85 1.9-1.72 4-2.63 6.09-31.27 74 4.19 162.5 79.16 197.76 70.72 33.22 151.38 7.15 186.53-58-35 55.08-106.73 76-170 46.22C401 604.62 367.81 522.8 395.86 453.91l-18.28-8.62Zm184.3-87.75c35.83 9.89 64 35.54 78.24 68.74h-97.3l-29.7-94-30.41 94H382.42l81.74 60.86-31.78 96.41 80.73-59.37 80.7 59.37-31.43-96.41 78.56-59a129.217 129.217 0 0 1 8.09 67.6C638.91 566.49 575.32 618.16 506.57 612l-2.68 18.55c1.91.22 3.94.44 6.11.64 74.11 7.68 143.06-47.79 153.94-123.91 10.3-71.75-34.74-136.28-102.06-149.74Z" fill="#fff"/></g><defs><clipPath id="a"><path fill="#fff" d="M0 0h1024v1024H0z"/></clipPath></defs></svg>

<svg width="1024" height="1024" viewBox="0 0 1024 1024" fill="none" xmlns="http://www.w3.org/2000/svg">
<g clip-path="url(#clip0_2_2295)">
<path d="M512 1024C794.77 1024 1024 794.77 1024 512C1024 229.23 794.77 0 512 0C229.23 0 0 229.23 0 512C0 794.77 229.23 1024 512 1024Z" fill="#728DBE"/>
<path d="M491.64 741.26C369.52 733 291.12 614.18 301.79 496.33L270 491.72C269.6 494.99 269.2 498.5 268.82 502.21C255.61 629.21 345.1 746.71 475.53 765.46C598.59 783.16 714.71 706.81 737.96 591.46C710.25 691.46 610.71 749.38 491.68 741.3M619.56 267C712.65 312.92 758 422.67 721.84 527.78C682 643.55 558.38 710.16 444.58 677.67L434.1 708.07C437.27 709.07 440.62 710.07 444.2 711.07C566.52 747.81 700.42 676.61 743.2 551.94C783.61 434.41 728.54 311.35 619.51 266.94M487 671.47C405.8 661.47 343.49 591.72 343 504.12C342.48 407.61 417.13 325.91 510.2 320.48L510.08 295.14C507.48 295.14 504.71 295.32 501.77 295.48C401.22 299.99 320.19 387.85 320.77 491.7C321.33 589.63 394.32 666.81 486.99 671.47M567.81 286C657.13 322.56 703.92 422.85 673.2 510.88L696.64 520.48C697.64 518.05 698.55 515.48 699.51 512.71C733.93 418.14 683.95 309.58 587.85 270.26C497.19 233.16 397.85 270.9 358.03 354.67C398.35 283.54 486.76 252.83 567.81 286ZM377.58 445.29C376.73 447.19 375.86 449.29 374.95 451.38C343.68 525.38 379.14 613.88 454.11 649.14C524.83 682.36 605.49 656.29 640.64 591.14C605.64 646.22 533.91 667.14 470.64 637.36C401 604.62 367.81 522.8 395.86 453.91L377.58 445.29ZM561.88 357.54C597.71 367.43 625.88 393.08 640.12 426.28H542.82L513.12 332.28L482.71 426.28H382.42L464.16 487.14L432.38 583.55L513.11 524.18L593.81 583.55L562.38 487.14L640.94 428.14C649.631 449.545 652.425 472.889 649.03 495.74C638.91 566.49 575.32 618.16 506.57 612L503.89 630.55C505.8 630.77 507.83 630.99 510 631.19C584.11 638.87 653.06 583.4 663.94 507.28C674.24 435.53 629.2 371 561.88 357.54Z" fill="white"/>
</g>
<defs>
<clipPath id="clip0_2_2295">
<rect width="1024" height="1024" fill="white"/>
</clipPath>
</defs>
</svg>
